truck-plus-outline.svg

<svg fill="currentColor" viewBox="0 0 24 24"><path d="M20 8h-3V4H3c-1.1 0-2 .9-2 2v11h2c0 1.7 1.3 3 3 3s3-1.3 3-3h6c0 1.7 1.3 3 3 3s3-1.3 3-3h2v-5zM6 18.5c-.8 0-1.5-.7-1.5-1.5s.7-1.5 1.5-1.5 1.5.7 1.5 1.5-.7 1.5-1.5 1.5m9-3.5H8.2c-.5-.6-1.3-1-2.2-1s-1.7.4-2.2 1H3V6h12zm3 3.5c-.8 0-1.5-.7-1.5-1.5s.7-1.5 1.5-1.5 1.5.7 1.5 1.5-.7 1.5-1.5 1.5M17 12V9.5h2.5l2 2.5zm-9-1H6V9h2V7h2v2h2v2h-2v2H8z"/></svg>

<svg  viewBox="0 0 24 24" fill="currentColor"><path  d="M20 8H17V4H3C1.9 4 1 4.9 1 6V17H3C3 18.7 4.3 20 6 20S9 18.7 9 17H15C15 18.7 16.3 20 18 20S21 18.7 21 17H23V12L20 8M6 18.5C5.2 18.5 4.5 17.8 4.5 17S5.2 15.5 6 15.5 7.5 16.2 7.5 17 6.8 18.5 6 18.5M15 15H8.2C7.7 14.4 6.9 14 6 14S4.3 14.4 3.8 15H3V6H15V15M18 18.5C17.2 18.5 16.5 17.8 16.5 17S17.2 15.5 18 15.5 19.5 16.2 19.5 17 18.8 18.5 18 18.5M17 12V9.5H19.5L21.5 12H17M8 11H6V9H8V7H10V9H12V11H10V13H8V11Z"/></svg>
